Yaru++/mimetypes/16/application-msexcel.svg

<svg height="16" viewBox="0 0 4.233125 4.233125" width="16" xmlns="http://www.w3.org/2000/svg" xmlns:xlink="http://www.w3.org/1999/xlink"><linearGradient id="a" gradientUnits="userSpaceOnUse" x1="2.116711" x2="2.116711" y1=".26457" y2="3.968555"><stop offset="0" stop-color="#fff"/><stop offset=".125" stop-color="#fff" stop-opacity=".098039"/><stop offset=".92500001" stop-color="#fff" stop-opacity=".098039"/><stop offset="1" stop-color="#fff" stop-opacity=".498039"/></linearGradient><linearGradient id="b" gradientTransform="matrix(0 -.01021733 .01033057 0 -1.197959 4.642008)" gradientUnits="userSpaceOnUse" x1="441.37927" x2="40.018539" y1="240.30267" y2="395.24066"><stop offset="0" stop-color="#007946"/><stop offset="1" stop-color="#009053"/></linearGradient><path d="m1.3483185.2645706c-.1902367 0-.3444309.00368-.48573255.027388-.14130436.0237322-.28264046.0730958-.39065659.1808579-.10801348.1077595-.15783472.2495507-.18137354.3911699-.02354675.1416218-.02677187.2964457-.02584852.4872856v.7652908 1.0314115c-.00079371.1900038.002381.3445631.0258485.4857352.0235468.1416192.0733574.2834104.18137354.3911699.10801613.1077621.24935223.1571389.39065659.1808576.14130167.023732.29549587.027388.48573257.027388h1.5367831c.1902367 0 .3440949-.00362.4852167-.027388.1411245-.0237584.2824765-.0735294.3901381-.1813736.1076616-.1078441.1571653-.249413.1808576-.3906539.0236949-.1412435.0273883-.2951308.0273883-.4857352v-1.0314115-.7937109l-1.0582812-1.0582813z" opacity=".1"/><path d="m1.2845041.1322881c-.80473288 0-.89132145.08175-.88737671.8792492v1.1050281 1.1050256c-.003942.7975022.0826438.8792518.88737671.8792518h1.6645336c.8047356 0 .8873794-.081739.8873794-.8792518v-1.1050256-1.1338743l-.8598535-.850403z" fill="url(#b)"/><g fill="#fff"><g enable-background="new" stroke-width="4.000325" transform="matrix(.08818294 0 0 .08818294 -28.218269 -5.290718)"><path d="m343.99977 76.095075-12.00098 1.775544.00078 19.348242 12.00098 1.781395zm-2.93892 6.604076c-.69762 1.429137-1.3989 2.853742-2.10956 4.277688.71852 1.463129 1.45289 2.914167 2.174 4.377296-.62966-.0366-1.25134-.07261-1.881-.11731-.44419-1.089508-.98801-2.142354-1.30676-3.281516-.35532 1.060766-.86398 2.059997-1.27159 3.099851-.57218-.009-1.14474-.03-1.71692-.0528.67146-1.314197 1.32341-2.637304 2.01577-3.94367-.58783-1.34555-1.23382-2.664547-1.83998-4.002266.57481-.0339 1.14801-.06811 1.7228-.09961.38931 1.021583.81546 2.028735 1.13682 3.07642.34488-1.11042.85933-2.154925 1.30087-3.228772.59048-.0417 1.18243-.07681 1.77555-.105609z"/><path d="m347 77.999528v18l9 .000716v-18z"/></g><path d="m2.1167101.2645706v3.7039844h.7683915c.7428341 0 .8190304-.076236.8190304-.8205807v-1.0314115-1.0582813l-.7937109-.7937109z" opacity=".1"/><path d="m.52928821 2.1165628v1.0314115c-.003651.7443342.0761989.8205807.81903029.8205807h1.5367831c.7428341 0 .8190304-.076236.8190304-.8205807v-1.0314115z" opacity=".1"/></g><path d="m1.3483185.00000026c-.1902367 0-.3444309.003678-.48573255.0273883-.14130436.02373198-.28264046.07309554-.39065659.18085764-.10801348.1077595-.15783472.2495533-.18137354.3911698-.02354675.1416245-.02676128.2964458-.02584852.4872857v1.0298611 1.0314115c-.00079371.1900038.002381.3445631.0258485.4857352.0235468.1416192.0733574.2834104.18137354.3911699.10801613.1077621.24935223.1571389.39065659.1808576.14130167.023732.29549587.027388.48573257.027388h1.5367831c.1902367 0 .3440949-.00362.4852167-.027388.1411245-.0237584.2824765-.0735294.3901381-.1813736.1076616-.1078441.1571653-.249413.1808576-.3906539.0236949-.1412435.0273883-.2951308.0273883-.4857352v-1.0314115-1.1678293l-.9487333-.94873324zm0 .26457034h1.5621026l.7937109.7937109v1.0582813 1.0314115c0 .7443448-.076196.8205807-.8190304.8205807h-1.5367831c-.74283139 0-.82268137-.076246-.81903029-.8205807v-1.0314115-1.0314115c-.0036405-.7443342.0761989-.8205807.81903029-.8205807z" opacity=".4"/><path d="m1.3483185.2645706c-.74283139 0-.82267079.076246-.81903029.8205807v1.0314115 1.0314115c-.003651.7443342.0761989.8205807.81903029.8205807h1.5367831c.7428341 0 .8190304-.076236.8190304-.8205807v-1.0314115-1.0582813l-.7937109-.7937109zm0 .2645703h1.5621026l.5291406.5291406v1.0582813 1.0314115c0 .1815667-.00582.3159975-.019631.3984058-.013811.082406-.029841.09959-.034103.1038651-.00426.00426-.021245.020293-.1033491.034103-.082112.013816-.2161962.019636-.3973767.019636h-1.5367834c-.1811778 0-.3153969-.0063-.39788727-.02016-.082493-.013837-.10001551-.029235-.10438092-.033587-.004365-.00437-.0199486-.021324-.0335898-.1033491-.0136254-.08203-.0194988-.216564-.0185993-.3978899v-.0005292-1.0319062-1.0319274-.0005291c-.00079371-.1813286.004974-.31586.0185993-.39789.0136254-.08203.0292218-.098992.0335898-.1033491.004365-.00437.02188-.019737.10438092-.033587.0824904-.013837.21670947-.02016.39788727-.02016z" fill="url(#a)" opacity=".4"/><path d="m3.704132 1.3228519v-.2645704l-.7937109-.7937109h-.2645704v.4049434.01553.00833c0 .5476103.073304.6320506.6221715.6293652z" fill="#00492b" opacity=".6"/><path d="m3.704132 1.058181-.7937109-.7936104v.2943847.012832.00688c0 .4517777.020822.4817641.4736364.4795496z" fill="#5cb690"/></svg>

<?xml version="1.0" encoding="UTF-8" standalone="no"?>
<svg
   xmlns:dc="http://purl.org/dc/elements/1.1/"
   xmlns:cc="http://creativecommons.org/ns#"
   xmlns:rdf="http://www.w3.org/1999/02/22-rdf-syntax-ns#"
   xmlns:svg="http://www.w3.org/2000/svg"
   xmlns="http://www.w3.org/2000/svg"
   xmlns:xlink="http://www.w3.org/1999/xlink"
   xmlns:sodipodi="http://sodipodi.sourceforge.net/DTD/sodipodi-0.dtd"
   xmlns:inkscape="http://www.inkscape.org/namespaces/inkscape"
   height="16"
   viewBox="0 0 4.233125 4.233125"
   width="16"
   version="1.1"
   id="svg33"
   sodipodi:docname="application-msexcel.svg"
   inkscape:version="0.92.5 (2060ec1f9f, 2020-04-08)">
  <metadata
     id="metadata39">
    <rdf:RDF>
      <cc:Work
         rdf:about="">
        <dc:format>image/svg+xml</dc:format>
        <dc:type
           rdf:resource="http://purl.org/dc/dcmitype/StillImage" />
      </cc:Work>
    </rdf:RDF>
  </metadata>
  <defs
     id="defs37">
    <linearGradient
       gradientTransform="matrix(0.26457031,0,0,0.26457031,-84.662351,-62.438593)"
       inkscape:collect="always"
       xlink:href="#linearGradient927"
       id="linearGradient993"
       x1="328"
       y1="237"
       x2="328"
       y2="251"
       gradientUnits="userSpaceOnUse" />
    <linearGradient
       inkscape:collect="always"
       id="linearGradient927">
      <stop
         style="stop-color:#ffffff;stop-opacity:1;"
         offset="0"
         id="stop923" />
      <stop
         id="stop933"
         offset="0.125"
         style="stop-color:#ffffff;stop-opacity:0.09803922" />
      <stop
         id="stop931"
         offset="0.92500001"
         style="stop-color:#ffffff;stop-opacity:0.09803922" />
      <stop
         style="stop-color:#ffffff;stop-opacity:0.49803922"
         offset="1"
         id="stop925" />
    </linearGradient>
    <linearGradient
       inkscape:collect="always"
       xlink:href="#linearGradient4338-3"
       id="linearGradient920"
       gradientUnits="userSpaceOnUse"
       gradientTransform="matrix(0,-0.01021733,0.01033057,0,-1.1979591,4.6420081)"
       x1="441.37927"
       y1="240.30267"
       x2="40.018539"
       y2="395.24066" />
    <linearGradient
       inkscape:collect="always"
       id="linearGradient4338-3">
      <stop
         style="stop-color:#007946;stop-opacity:1"
         offset="0"
         id="stop4340-0" />
      <stop
         style="stop-color:#009053;stop-opacity:1"
         offset="1"
         id="stop4342-7" />
    </linearGradient>
  </defs>
  <sodipodi:namedview
     pagecolor="#ffffff"
     bordercolor="#666666"
     borderopacity="1"
     objecttolerance="10"
     gridtolerance="10"
     guidetolerance="10"
     inkscape:pageopacity="0"
     inkscape:pageshadow="2"
     inkscape:window-width="834"
     inkscape:window-height="480"
     id="namedview35"
     showgrid="false"
     inkscape:zoom="14.75"
     inkscape:cx="8"
     inkscape:cy="8"
     inkscape:window-x="0"
     inkscape:window-y="28"
     inkscape:window-maximized="0"
     inkscape:current-layer="svg33" />
  <linearGradient
     id="a"
     gradientUnits="userSpaceOnUse"
     x1="328"
     x2="328"
     y1="237"
     y2="251">
    <stop
       offset="0"
       stop-color="#fff"
       id="stop2" />
    <stop
       offset=".125"
       stop-color="#fff"
       stop-opacity=".098039"
       id="stop4" />
    <stop
       offset=".92500001"
       stop-color="#fff"
       stop-opacity=".098039"
       id="stop6" />
    <stop
       offset="1"
       stop-color="#fff"
       stop-opacity=".498039"
       id="stop8" />
  </linearGradient>
  <clipPath
     id="b">
    <path
       d="m325.09646 237c-2.80769 0-3.10979.28839-3.09603 3.10176v3.89824 3.89824c-.0138 2.81337.28834 3.10176 3.09603 3.10176h5.8075c2.8077 0 3.09604-.28835 3.09604-3.10176v-3.89824-3.89824c0-2.8134-.28835-3.10176-3.09604-3.10176z"
       id="path11" />
  </clipPath>
  <linearGradient
     id="c"
     gradientTransform="matrix(0 -.00953618 -.00953591 0 5.176273 4.473642)"
     gradientUnits="userSpaceOnUse"
     x1="459.03448"
     x2="35.310345"
     y1="419.23337"
     y2="207.36522">
    <stop
       offset="0"
       stop-color="#007946"
       id="stop14" />
    <stop
       offset="1"
       stop-color="#009053"
       id="stop16" />
  </linearGradient>
  <path
     style="color:#000000;font-style:normal;font-variant:normal;font-weight:normal;font-stretch:normal;font-size:medium;line-height:normal;font-family:sans-serif;font-variant-ligatures:normal;font-variant-position:normal;font-variant-caps:normal;font-variant-numeric:normal;font-variant-alternates:normal;font-feature-settings:normal;text-indent:0;text-align:start;text-decoration:none;text-decoration-line:none;text-decoration-style:solid;text-decoration-color:#000000;letter-spacing:normal;word-spacing:normal;text-transform:none;writing-mode:lr-tb;direction:ltr;text-orientation:mixed;dominant-baseline:auto;baseline-shift:baseline;text-anchor:start;white-space:normal;shape-padding:0;clip-rule:nonzero;display:inline;overflow:visible;visibility:visible;opacity:0.1;isolation:auto;mix-blend-mode:normal;color-interpolation:sRGB;color-interpolation-filters:linearRGB;solid-color:#000000;solid-opacity:1;vector-effect:none;fill:#000000;fill-opacity:1;fill-rule:nonzero;stroke:none;stroke-width:0.52914065;stroke-linecap:butt;stroke-linejoin:miter;stroke-miterlimit:4;stroke-dasharray:none;stroke-dashoffset:0;stroke-opacity:1;marker:none;color-rendering:auto;image-rendering:auto;shape-rendering:auto;text-rendering:auto;enable-background:accumulate"
     d="m 1.3483185,0.2645706 c -0.1902367,0 -0.3444309,0.00368 -0.48573255,0.027388 C 0.72128159,0.3156908 0.57994549,0.3650544 0.47192936,0.4728165 0.36391588,0.580576 0.31409464,0.7223672 0.29055582,0.8639864 0.26700907,1.0056082 0.26378395,1.1604321 0.2647073,1.351272 V 2.1165628 3.1479743 C 0.26391359,3.3379781 0.2670883,3.4925374 0.2905558,3.6337095 0.3141026,3.7753287 0.3639132,3.9171199 0.47192934,4.0248794 0.57994547,4.1326415 0.72128157,4.1820183 0.86258593,4.205737 1.0038876,4.229469 1.1580818,4.233125 1.3483185,4.233125 h 1.5367831 c 0.1902367,0 0.3440949,-0.00362 0.4852167,-0.027388 C 3.5114428,4.1819786 3.6527948,4.1322076 3.7604564,4.0243634 3.868118,3.9165193 3.9176217,3.7749504 3.941314,3.6337095 3.9650089,3.492466 3.9687023,3.3385787 3.9687023,3.1479743 V 2.1165628 1.3228519 L 2.9104211,0.2645706 Z"
     id="path997"
     inkscape:connector-curvature="0"
     sodipodi:nodetypes="scscccccccsscscscccs" />
  <path
     style="color:#000000;display:inline;overflow:visible;visibility:visible;fill:url(#linearGradient920);fill-opacity:1;fill-rule:nonzero;stroke:none;stroke-width:0.26457033;marker:none;enable-background:accumulate"
     d="m 1.2845041,0.1322881 c -0.80473288,0 -0.89132145,0.08175 -0.88737671,0.8792492 V 2.1165654 3.221591 c -0.003942,0.7975022 0.0826438,0.8792518 0.88737671,0.8792518 h 1.6645336 c 0.8047356,0 0.8873794,-0.081739 0.8873794,-0.8792518 V 2.1165654 0.9826911 L 2.9765636,0.1322881 Z"
     id="path918"
     inkscape:connector-curvature="0"
     sodipodi:nodetypes="scccssscccs" />
  <g
     transform="matrix(0.26457031,0,0,0.26457031,-84.662421,-62.438506)"
     style="display:inline;enable-background:new"
     id="g17708">
    <g
       id="g993"
       transform="matrix(0.33330625,0,0,0.33330625,213.34273,216.00227)"
       style="stroke-width:3.0002439">
      <path
         sodipodi:nodetypes="cccccccccccccccccsc"
         inkscape:connector-curvature="0"
         id="path988-1"
         d="m 343.99977,76.095075 -12.00098,1.775544 7.8e-4,19.348242 12.00098,1.781395 z m -2.93892,6.604076 c -0.69762,1.429137 -1.3989,2.853742 -2.10956,4.277688 0.71852,1.463129 1.45289,2.914167 2.174,4.377296 -0.62966,-0.0366 -1.25134,-0.07261 -1.881,-0.11731 -0.44419,-1.089508 -0.98801,-2.142354 -1.30676,-3.281516 -0.35532,1.060766 -0.86398,2.059997 -1.27159,3.099851 -0.57218,-0.009 -1.14474,-0.03 -1.71692,-0.0528 0.67146,-1.314197 1.32341,-2.637304 2.01577,-3.94367 -0.58783,-1.34555 -1.23382,-2.664547 -1.83998,-4.002266 0.57481,-0.0339 1.14801,-0.06811 1.7228,-0.09961 0.38931,1.021583 0.81546,2.028735 1.13682,3.07642 0.34488,-1.11042 0.85933,-2.154925 1.30087,-3.228772 0.59048,-0.0417 1.18243,-0.07681 1.77555,-0.105609 z"
         style="display:inline;fill:#ffffff;stroke-width:4.00032473;enable-background:new" />
      <path
         sodipodi:nodetypes="ccccc"
         inkscape:connector-curvature="0"
         id="path991-2"
         d="m 347,77.999528 v 18 l 9,7.16e-4 v -18 z"
         style="display:inline;fill:#ffffff;stroke-width:4.00032473;enable-background:new" />
    </g>
  </g>
  <path
     style="color:#000000;display:inline;overflow:visible;visibility:visible;opacity:0.1;fill:#ffffff;fill-opacity:1;fill-rule:nonzero;stroke:none;stroke-width:0.26457033;marker:none;enable-background:accumulate"
     d="M 2.1167101,0.2645706 V 3.968555 h 0.7683915 c 0.7428341,0 0.8190304,-0.076236 0.8190304,-0.8205807 V 2.1165628 1.0582815 L 2.9104211,0.2645706 Z"
     id="path1009"
     inkscape:connector-curvature="0"
     sodipodi:nodetypes="ccsscccc" />
  <path
     style="color:#000000;display:inline;overflow:visible;visibility:visible;opacity:0.1;fill:#ffffff;fill-opacity:1;fill-rule:nonzero;stroke:none;stroke-width:0.26457033;marker:none;enable-background:accumulate"
     d="M 0.52928821,2.1165628 V 3.1479743 C 0.52563721,3.8923085 0.60548711,3.968555 1.3483185,3.968555 h 1.5367831 c 0.7428341,0 0.8190304,-0.076236 0.8190304,-0.8205807 V 2.1165628 Z"
     id="path1016"
     inkscape:connector-curvature="0" />
  <path
     style="color:#000000;font-style:normal;font-variant:normal;font-weight:normal;font-stretch:normal;font-size:medium;line-height:normal;font-family:sans-serif;font-variant-ligatures:normal;font-variant-position:normal;font-variant-caps:normal;font-variant-numeric:normal;font-variant-alternates:normal;font-feature-settings:normal;text-indent:0;text-align:start;text-decoration:none;text-decoration-line:none;text-decoration-style:solid;text-decoration-color:#000000;letter-spacing:normal;word-spacing:normal;text-transform:none;writing-mode:lr-tb;direction:ltr;text-orientation:mixed;dominant-baseline:auto;baseline-shift:baseline;text-anchor:start;white-space:normal;shape-padding:0;clip-rule:nonzero;display:inline;overflow:visible;visibility:visible;opacity:0.4;isolation:auto;mix-blend-mode:normal;color-interpolation:sRGB;color-interpolation-filters:linearRGB;solid-color:#000000;solid-opacity:1;vector-effect:none;fill:#000000;fill-opacity:1;fill-rule:nonzero;stroke:none;stroke-width:0.52914065;stroke-linecap:butt;stroke-linejoin:miter;stroke-miterlimit:4;stroke-dasharray:none;stroke-dashoffset:0;stroke-opacity:1;marker:none;color-rendering:auto;image-rendering:auto;shape-rendering:auto;text-rendering:auto;enable-background:accumulate"
     d="m 1.3483185,2.6e-7 c -0.1902367,0 -0.3444309,0.003678 -0.48573255,0.0273883 C 0.72128159,0.05112054 0.57994549,0.1004841 0.47192936,0.2082462 0.36391588,0.3160057 0.31409464,0.4577995 0.29055582,0.599416 0.26700907,0.7410405 0.26379454,0.8958618 0.2647073,1.0867017 V 2.1165628 3.1479743 C 0.26391359,3.3379781 0.2670883,3.4925374 0.2905558,3.6337095 0.3141026,3.7753287 0.3639132,3.9171199 0.47192934,4.0248794 0.57994547,4.1326415 0.72128157,4.1820183 0.86258593,4.205737 1.0038876,4.229469 1.1580818,4.233125 1.3483185,4.233125 h 1.5367831 c 0.1902367,0 0.3440949,-0.00362 0.4852167,-0.027388 C 3.5114428,4.1819786 3.6527948,4.1322076 3.7604564,4.0243634 3.868118,3.9165193 3.9176217,3.7749504 3.941314,3.6337095 3.9650089,3.492466 3.9687023,3.3385787 3.9687023,3.1479743 V 2.1165628 0.9487335 L 3.019969,2.6e-7 Z m 0,0.26457034 H 2.9104211 L 3.704132,1.0582815 v 1.0582813 1.0314115 c 0,0.7443448 -0.076196,0.8205807 -0.8190304,0.8205807 H 1.3483185 c -0.74283139,0 -0.82268137,-0.076246 -0.81903029,-0.8205807 V 2.1165628 1.0851513 C 0.52564771,0.3408171 0.60548711,0.2645706 1.3483185,0.2645706 Z"
     id="path928"
     inkscape:connector-curvature="0"
     sodipodi:nodetypes="scscccccccsscscscccsscccssscccs" />
  <path
     style="color:#000000;font-style:normal;font-variant:normal;font-weight:normal;font-stretch:normal;font-size:medium;line-height:normal;font-family:sans-serif;font-variant-ligatures:normal;font-variant-position:normal;font-variant-caps:normal;font-variant-numeric:normal;font-variant-alternates:normal;font-feature-settings:normal;text-indent:0;text-align:start;text-decoration:none;text-decoration-line:none;text-decoration-style:solid;text-decoration-color:#000000;letter-spacing:normal;word-spacing:normal;text-transform:none;writing-mode:lr-tb;direction:ltr;text-orientation:mixed;dominant-baseline:auto;baseline-shift:baseline;text-anchor:start;white-space:normal;shape-padding:0;clip-rule:nonzero;display:inline;overflow:visible;visibility:visible;opacity:0.4;isolation:auto;mix-blend-mode:normal;color-interpolation:sRGB;color-interpolation-filters:linearRGB;solid-color:#000000;solid-opacity:1;vector-effect:none;fill:url(#linearGradient993);fill-opacity:1;fill-rule:nonzero;stroke:none;stroke-width:0.52914065;stroke-linecap:butt;stroke-linejoin:miter;stroke-miterlimit:4;stroke-dasharray:none;stroke-dashoffset:0;stroke-opacity:1;marker:none;color-rendering:auto;image-rendering:auto;shape-rendering:auto;text-rendering:auto;enable-background:accumulate"
     clip-path="none"
     d="m 1.3483185,0.2645706 c -0.74283139,0 -0.82267079,0.076246 -0.81903029,0.8205807 V 2.1165628 3.1479743 C 0.52563721,3.8923085 0.60548711,3.968555 1.3483185,3.968555 h 1.5367831 c 0.7428341,0 0.8190304,-0.076236 0.8190304,-0.8205807 V 2.1165628 1.0582815 L 2.9104211,0.2645706 Z m 0,0.2645703 h 1.5621026 l 0.5291406,0.5291406 v 1.0582813 1.0314115 c 0,0.1815667 -0.00582,0.3159975 -0.019631,0.3984058 -0.013811,0.082406 -0.029841,0.09959 -0.034103,0.1038651 -0.00426,0.00426 -0.021245,0.020293 -0.1033491,0.034103 -0.082112,0.013816 -0.2161962,0.019636 -0.3973767,0.019636 H 1.3483185 c -0.1811778,0 -0.3153969,-0.0063 -0.39788727,-0.02016 -0.082493,-0.013837 -0.10001551,-0.029235 -0.10438092,-0.033587 -0.004365,-0.00437 -0.0199486,-0.021324 -0.0335898,-0.1033491 -0.0136254,-0.08203 -0.0194988,-0.216564 -0.0185993,-0.3978899 V 3.148469 2.1165628 1.0846354 1.0841063 c -7.9371e-4,-0.1813286 0.004974,-0.31586 0.0185993,-0.39789 0.0136254,-0.08203 0.0292218,-0.098992 0.0335898,-0.1033491 0.004365,-0.00437 0.02188,-0.019737 0.10438092,-0.033587 0.0824904,-0.013837 0.21670947,-0.02016 0.39788727,-0.02016 z"
     id="path937"
     inkscape:connector-curvature="0"
     sodipodi:nodetypes="scccssscccsscccscccssccccccccsccs" />
  <path
     inkscape:connector-curvature="0"
     style="color:#000000;display:inline;overflow:visible;visibility:visible;opacity:0.6;fill:#00492b;fill-opacity:1;fill-rule:nonzero;stroke:none;stroke-width:0.06614863;marker:none;enable-background:accumulate"
     d="M 3.704132,1.3228519 V 1.0582815 L 2.9104211,0.2645706 H 2.6458507 v 0.4049434 0.01553 0.00833 c 0,0.5476103 0.073304,0.6320506 0.6221715,0.6293652 z"
     id="rect4158-0-3-62-2-3-7-3"
     sodipodi:nodetypes="ccccccscc" />
  <path
     inkscape:connector-curvature="0"
     style="color:#000000;display:inline;overflow:visible;visibility:visible;fill:#5cb690;fill-opacity:1;fill-rule:nonzero;stroke:none;stroke-width:0.06614863;marker:none;enable-background:accumulate"
     d="M 3.704132,1.058181 2.9104211,0.2645706 v 0.2943847 0.012832 0.00688 c 0,0.4517777 0.020822,0.4817641 0.4736364,0.4795496 z"
     id="rect4158-0-3-62-6-5-5"
     sodipodi:nodetypes="ccccscc" />
</svg>
